Origami/32x32/apps/giggle.svg

<svg width="32" height="32" version="1.1" viewBox="0 0 32 32" xmlns="http://www.w3.org/2000/svg" xmlns:xlink="http://www.w3.org/1999/xlink">
 <defs>
  <linearGradient id="linearGradient4532" x1="17" x2="10" y1="5" y2="18" gradientTransform="matrix(.74999999 0 0 .74980453 -1.25 -.99452684)" gradientUnits="userSpaceOnUse">
   <stop style="stop-color:#000000" offset="0"/>
   <stop style="stop-color:#000000;stop-opacity:0" offset="1"/>
  </linearGradient>
 </defs>
 <g transform="matrix(-1,0,0,1,32.00008,-1020.4)">
  <path d="m21.5 1039.9s-2.764-4.4724-3-7c-0.28574-3.0599 2-9 2-9" style="fill:none;stroke-linecap:round;stroke-linejoin:round;stroke-width:3;stroke:#1f711f"/>
  <path d="m10.5 1041.9s0.16148-7.7583 2-11c1.748-3.0822 8-7 8-7" style="fill:none;stroke-linecap:round;stroke-linejoin:round;stroke-width:3;stroke:#248424"/>
  <path d="m21.93 1024.3a1.5002 1.5002 0 0 1 -0.63281 0.7793s-1.5082 0.9458-3.2285 2.2637c-1.7203 1.3178-3.6337 3.0941-4.2637 4.205-0.67523 1.1905-1.2425 3.8803-1.5039 6.1485-0.262 2.3-0.301 4.2-0.301 4.2a1.5003 1.5003 0 0 1 -2.9707 0.2598c-0.0091 0.2-0.0293 0.6-0.0293 0.6a1.5003101 1.5003101 0 1 0 3 0.061s0.03942-1.8744 0.30078-4.1426 0.82867-4.9579 1.5039-6.1484c0.63-1.1109 2.5434-2.8873 4.2637-4.2051 1.7203-1.3179 3.2285-2.2637 3.2285-2.2637a1.5002 1.5002 0 0 0 0.63281 -1.7812z" style="fill-rule:evenodd;opacity:.2"/>
  <path d="m20.512 1022.4a1.5002 1.5002 0 0 0 -0.80859 0.2402s-1.6163 1.0122-3.459 2.4238-3.9308 3.1362-5.0488 5.1075c-1.1633 2.0512-1.596 4.8619-1.875 7.2832-0.2787 2.4-0.32 4.4-0.32 4.4a1.5003 1.5003 0 0 0 0.0293 0.3183c0.02569-0.691 0.08448-1.9536 0.29102-3.7461 0.27901-2.4213 0.71171-5.232 1.875-7.2832 1.118-1.9713 3.2061-3.6958 5.0488-5.1074s3.459-2.4238 3.459-2.4238a1.5002 1.5002 0 0 1 0.80859 -0.2403 1.5002 1.5002 0 0 1 1.418 1.0039 1.5002 1.5002 0 0 0 -1.418 -2.0019z" style="fill-rule:evenodd;fill:#ffffff;opacity:.1"/>
  <circle cx="22" cy="1040.4" r="7" style="fill:#c72828"/>
  <path d="m22 1033.4a7 7 0 0 0 -7 7 7 7 0 0 0 0.02344 0.541 7 7 0 0 1 6.9766 -6.541 7 7 0 0 1 6.9766 6.459 7 7 0 0 0 0.02344 -0.459 7 7 0 0 0 -7 -7z" style="fill:#ffffff;opacity:.2"/>
  <path d="m28.977 1040.8a7 7 0 0 1 -6.977 6.6 7 7 0 0 1 -6.9766 -6.459 7 7 0 0 0 -0.02344 0.459 7 7 0 0 0 7 7 7 7 0 0 0 7 -7 7 7 0 0 0 -0.02344 -0.541z" style="opacity:.2"/>
  <circle cx="10" cy="1043.4" r="7" style="fill:#ff3737"/>
  <path d="m10 1036.4a7 7 0 0 0 -7 7 7 7 0 0 0 0.023437 0.541 7 7 0 0 1 6.9766 -6.541 7 7 0 0 1 6.9766 6.459 7 7 0 0 0 0.02344 -0.459 7 7 0 0 0 -7 -7z" style="fill:#ffffff;opacity:.2"/>
  <path d="m16.977 1043.8a7 7 0 0 1 -6.977 6.6 7 7 0 0 1 -6.9766 -6.5 7 7 0 0 0 -0.0234 0.5 7 7 0 0 0 7 7 7 7 0 0 0 7 -7 7 7 0 0 0 -0.02344 -0.541z" style="opacity:.2"/>
 </g>
 <path d="m11.401601 3.0046913-0.239895 0.090723s-1.7668961 0.6736181-3.8040319 1.8569506c-2.0371355 1.1833324-4.3632545 2.8705118-5.4915615 4.9840233-1.1337194 2.1236488-0.96879543 4.8020418-0.5483289 6.9489218 0.4204668 2.14688 1.1155657 3.782804 1.1155657 3.782804l0.1406275 0.331886 0.3072537-0.199821s1.7616409-1.145854 3.793396-2.799781c2.0317545-1.653926 4.3412664-3.80674 5.4608364-5.903884 2.249965-4.2145647-0.60269-8.8759245-0.60269-8.8759245z" style="fill-rule:evenodd;opacity:.2"/>
 <path d="m11.401601 2.0046913-0.239895 0.090723s-1.7668961 0.6736181-3.8040319 1.8569506c-2.0371355 1.1833324-4.3632545 2.8705118-5.4915615 4.9840233-1.1337194 2.1236488-0.96879543 4.8020418-0.5483289 6.9489218 0.4204668 2.14688 1.1155657 3.782804 1.1155657 3.782804l0.1406275 0.331886 0.3072537-0.199821s1.7616409-1.145854 3.793396-2.799781c2.0317545-1.653926 4.3412664-3.80674 5.4608364-5.903884 2.249965-4.2145647-0.60269-8.8759245-0.60269-8.8759245z" style="fill-rule:evenodd;fill:#32b632"/>
 <path d="m11.238941 2.6521825-5.3639411 9.4748695" style="fill:none;opacity:.2;stroke-linecap:round;stroke-linejoin:round;stroke:url(#linearGradient4532)"/>
 <path d="m11.402344 2.0039062l-0.240235 0.0917969s-1.7675513 0.6740894-3.8046871 1.8574219c-2.0371355 1.1833324-4.3638805 2.8689104-5.4921875 4.9824219-0.7194458 1.3476441-0.91343988 2.9187021-0.8535156 4.4355471 0.0508568-1.19293 0.2915663-2.382921 0.8535156-3.4355471 1.128307-2.1135115 3.455052-3.7990895 5.4921875-4.9824219 2.0371358-1.1833325 3.8046871-1.8574219 3.8046871-1.8574219l0.240235-0.0917969 0.130859 0.2167969s1.296083 2.1289653 1.447266 4.8085938c0.185681-3.1308184-1.447266-5.8085938-1.447266-5.8085938l-0.130859-0.2167969z" style="fill-rule:evenodd;fill:#ffffff;opacity:.2"/>
</svg>

<svg xmlns="http://www.w3.org/2000/svg" xmlns:xlink="http://www.w3.org/1999/xlink" width="32" height="32" version="1.1" viewBox="0 0 32 32">
 <defs>
  <linearGradient id="linearGradient4532" x1="17" x2="10" y1="5" y2="18" gradientTransform="matrix(0.74999999,0,0,0.74980453,-1.25,-0.99452684)" gradientUnits="userSpaceOnUse" xlink:href="#linearGradient4530"/>
  <linearGradient id="linearGradient4530">
   <stop style="stop-color:#000000" offset="0"/>
   <stop style="stop-color:#000000;stop-opacity:0" offset="1"/>
  </linearGradient>
 </defs>
 <g transform="matrix(-1,0,0,1,32.00008,-1020.4)">
  <path style="fill:none;stroke:#1f711f;stroke-width:3;stroke-linecap:round;stroke-linejoin:round" d="m 21.5,1039.9 c 0,0 -2.764,-4.4724 -3,-7 -0.28574,-3.0599 2,-9 2,-9"/>
  <path style="fill:none;stroke:#248424;stroke-width:3;stroke-linecap:round;stroke-linejoin:round" d="m 10.5,1041.9 c 0,0 0.16148,-7.7583 2,-11 1.748,-3.0822 8,-7 8,-7"/>
  <path style="opacity:0.2;fill-rule:evenodd" d="m 21.93,1024.3 a 1.5002,1.5002 0 0 1 -0.63281,0.7793 c 0,0 -1.5082,0.9458 -3.2285,2.2637 -1.7203,1.3178 -3.6337,3.0941 -4.2637,4.205 -0.67523,1.1905 -1.2425,3.8803 -1.5039,6.1485 -0.262,2.3 -0.301,4.2 -0.301,4.2 a 1.5003,1.5003 0 0 1 -2.9707,0.2598 c -0.0091,0.2 -0.0293,0.6 -0.0293,0.6 a 1.5003101,1.5003101 0 1 0 3,0.061 c 0,0 0.03942,-1.8744 0.30078,-4.1426 0.26136,-2.2682 0.82867,-4.9579 1.5039,-6.1484 0.63,-1.1109 2.5434,-2.8873 4.2637,-4.2051 1.7203,-1.3179 3.2285,-2.2637 3.2285,-2.2637 a 1.5002,1.5002 0 0 0 0.63281,-1.7812 z"/>
  <path style="opacity:0.1;fill:#ffffff;fill-rule:evenodd" d="m 20.512,1022.4 a 1.5002,1.5002 0 0 0 -0.80859,0.2402 c 0,0 -1.6163,1.0122 -3.459,2.4238 -1.8427,1.4116 -3.9308,3.1362 -5.0488,5.1075 -1.1633,2.0512 -1.596,4.8619 -1.875,7.2832 -0.2787,2.4 -0.32,4.4 -0.32,4.4 a 1.5003,1.5003 0 0 0 0.0293,0.3183 c 0.02569,-0.691 0.08448,-1.9536 0.29102,-3.7461 0.27901,-2.4213 0.71171,-5.232 1.875,-7.2832 1.118,-1.9713 3.2061,-3.6958 5.0488,-5.1074 1.8427,-1.4116 3.459,-2.4238 3.459,-2.4238 a 1.5002,1.5002 0 0 1 0.80859,-0.2403 1.5002,1.5002 0 0 1 1.418,1.0039 1.5002,1.5002 0 0 0 -1.418,-2.0019 z"/>
  <circle style="fill:#c72828" cx="22" cy="1040.4" r="7"/>
  <path style="opacity:0.2;fill:#ffffff" d="m 22,1033.4 a 7,7 0 0 0 -7,7 7,7 0 0 0 0.02344,0.541 7,7 0 0 1 6.9766,-6.541 7,7 0 0 1 6.9766,6.459 7,7 0 0 0 0.02344,-0.459 7,7 0 0 0 -7,-7 z"/>
  <path style="opacity:0.2" d="m 28.977,1040.8 a 7,7 0 0 1 -6.977,6.6 7,7 0 0 1 -6.9766,-6.459 7,7 0 0 0 -0.02344,0.459 7,7 0 0 0 7,7 7,7 0 0 0 7,-7 7,7 0 0 0 -0.02344,-0.541 z"/>
  <circle style="fill:#ff3737" cx="10" cy="1043.4" r="7"/>
  <path style="opacity:0.2;fill:#ffffff" d="m 10,1036.4 a 7,7 0 0 0 -7,7 7,7 0 0 0 0.023437,0.541 7,7 0 0 1 6.9766,-6.541 7,7 0 0 1 6.9766,6.459 7,7 0 0 0 0.02344,-0.459 7,7 0 0 0 -7,-7 z"/>
  <path style="opacity:0.2" d="M 16.977,1043.8 A 7,7 0 0 1 10,1050.4 7,7 0 0 1 3.0234,1043.9 7,7 0 0 0 3,1044.4 a 7,7 0 0 0 7,7 7,7 0 0 0 7,-7 7,7 0 0 0 -0.02344,-0.541 z"/>
 </g>
 <path style="opacity:0.2;fill-rule:evenodd" d="m 11.401601,3.0046913 -0.239895,0.090723 c 0,0 -1.7668961,0.6736181 -3.8040319,1.8569506 C 5.3205386,6.1356973 2.9944196,7.8228767 1.8661126,9.9363882 0.73239315,12.060037 0.89731717,14.73843 1.3177837,16.88531 c 0.4204668,2.14688 1.1155657,3.782804 1.1155657,3.782804 L 2.5739769,21 2.8812306,20.800179 c 0,0 1.7616409,-1.145854 3.793396,-2.799781 2.0317545,-1.653926 4.3412664,-3.80674 5.4608364,-5.903884 2.249965,-4.2145647 -0.60269,-8.8759245 -0.60269,-8.8759245 z"/>
 <path style="fill:#32b632;fill-rule:evenodd" d="m 11.401601,2.0046913 -0.239895,0.090723 c 0,0 -1.7668961,0.6736181 -3.8040319,1.8569506 C 5.3205386,5.1356973 2.9944196,6.8228767 1.8661126,8.9363882 0.73239315,11.060037 0.89731717,13.73843 1.3177837,15.88531 c 0.4204668,2.14688 1.1155657,3.782804 1.1155657,3.782804 L 2.5739769,20 2.8812306,19.800179 c 0,0 1.7616409,-1.145854 3.793396,-2.799781 2.0317545,-1.653926 4.3412664,-3.80674 5.4608364,-5.903884 2.249965,-4.2145647 -0.60269,-8.8759245 -0.60269,-8.8759245 z"/>
 <path style="opacity:0.2;fill:none;stroke:url(#linearGradient4532);stroke-linecap:round;stroke-linejoin:round" d="M 11.238941,2.6521825 5.8749999,12.127052"/>
 <path style="fill:#ffffff;fill-rule:evenodd;opacity:0.2" d="M 11.402344 2.0039062 L 11.162109 2.0957031 C 11.162109 2.0957031 9.3945577 2.7697925 7.3574219 3.953125 C 5.3202864 5.1364574 2.9935414 6.8220354 1.8652344 8.9355469 C 1.1457886 10.283191 0.95179452 11.854249 1.0117188 13.371094 C 1.0625756 12.178164 1.3032851 10.988173 1.8652344 9.9355469 C 2.9935414 7.8220354 5.3202864 6.1364574 7.3574219 4.953125 C 9.3945577 3.7697925 11.162109 3.0957031 11.162109 3.0957031 L 11.402344 3.0039062 L 11.533203 3.2207031 C 11.533203 3.2207031 12.829286 5.3496684 12.980469 8.0292969 C 13.16615 4.8984785 11.533203 2.2207031 11.533203 2.2207031 L 11.402344 2.0039062 z"/>
</svg>
